X:365
T:Be Gone Dull Care.4voices. RH.365
R:jig
S:Rev.R.Harrison’s MS,c1815,Cumbria
N:Written by a different hand
O:England
A:Temple Sowerby,Cumbria
Z:vmp.Simon Wilson. Review PJH, 2008.
M:6/8
L:1/8
Q:3/8=100
V:1
V:2 name=”Alto”
V:3 name=”Sec’d”
V:4 name=”Bass”
K:G
[V:1] D|G3 A3|B3- B2c|ded cBB|(B3 A2)D|
[V:2] d|d3 d3|d3 d2d|d2d d2d|d3- d2d|
[V:3] F|G3 F3|G3 G2A|BcB AGG|G3 F2A|
[V:4] D,|G,,3 D,3|G,3 G,2F,|G,2G, C,2C,|D,3 D,2D,|
%
[V:1] G3 A3|B3- B2c|BcB AGA|G3 G2||
[V:2] d3 d3|d3- d2d|d2d d2d|d3 d2||
[V:3] G3 F3|G3- G2A|GAG ABc|B3- B2||
[V:4] G,,3 D,3|G,3 G,2F|G,2B,, D,2D,|G,,3 G,,2||
%
[V:1] B|d2d d2B|c2c c2A|B2B dcB|(B3 A2)D|
[V:2] d|d2d d2d|d2d d2d|d2d d2d|d3- d2d|
[V:3] G|B2B B2G|A2A A2A|G2G BAG|G3 F2A|
[V:4] G,|G,2G, G,2G,|F,2F, F,2F,|G,2G, G,,2G,,|D,3 D,2F,|
%
[V:1] G2G A2A|B2c d2c|B2B AGA|G3 G2|]
[V:2] d2d d2d|d2d d2d|d2d d2d|d3 d2|]
[V:3] G2G F2F|G2A B2A|G2G ABc|B3 B2|]
[V:4] G,2G, D,2D,|G,2G, B,,2C,|D,2D, D,2D,|G,,3 G,,2|]

